X: 31574
T: Palatine's Daughter, The
R: polka
M: 2/4
K: Dmajor
fg|a2b2g2a2|f2a2 g2fe|d3e fdec|dedc AGFG|
AB (3cBA dcAG|FEFG AB (3cBA|dcdf edce|d2d2d2 :|
(3ABc|d2e2f2g2|a3f defg|a2b2g2e2|f3e defg|
a2b2g2e2|fefa gefe|d3e fdec|dedc A2fg|
a2b2g2e2|f2a2 gefe|dcde fdec|dedc AGFG|
AB (3cBA dcAG|FEFG AB (3cBA|dcdf edce|d2d2d2||

